Adwaita++/places/scalable/user-bookmarks.svg

<svg fill="none" height="128" viewBox="0 0 128 128" width="128" xmlns="http://www.w3.org/2000/svg" xmlns:xlink="http://www.w3.org/1999/xlink">
  <linearGradient id="paint0_linear" gradientUnits="userSpaceOnUse" x1="116" x2="12" y1="117.999" y2="117.999">
    <stop offset="0" stop-color="#d5d3cf"/>
    <stop offset=".038" stop-color="#e3e2df"/>
    <stop offset=".077" stop-color="#c0bfbc"/>
    <stop offset=".923" stop-color="#c0bfbc"/>
    <stop offset=".962" stop-color="#e3e2df"/>
    <stop offset="1" stop-color="#d5d3cf"/>
  </linearGradient>
  <path d="m108 68h-88c-4.4183 0-8 3.5817-8 8v32c0 4.418 3.5817 8 8 8h88c4.418 0 8-3.582 8-8v-32c0-4.4183-3.582-8-8-8z" fill="url(#paint0_linear)"/>
  <path d="m20 10c-4.432 0-8 3.568-8 8v42 42c0 4.432 3.568 8 8 8h44 44c4.432 0 8-3.568 8-8v-42-42c0-4.432-3.568-8-8-8z" fill="#e5a50a"/>
  <path d="m64.0256 28.7078c-.0034 0-.0051.0008-.0102.0061-.0051.0009-.0051.0051-.0051.0076-.0051.0026-.005.0066-.0101.0092-.0051.0025-.0051.0025-.0102.0061-4.2778 9.1805-7.5833 18.5368-9.4628 24.2698-5.7259.0047-26.0496-.8664-26.0496-.8664s-.0051 2.4012-.0203 2.3657c-.0008.0034-.0017.0051.0017.0077-.0008.006.0034.0086.0051.0111.0009.0061.0035.0076.0051.0091.0009.0061.0017.0051.0034.0076 7.4093 6.9055 15.2867 12.9405 20.1585 16.4997-1.7361 5.3563-6.6016 22.8577-6.6016 22.8577.0152-.0946.0001-.0001-.0304 2.4026.0026.0017.0033.0026.0101 0 .0051.0026.0102-.0008.0102-.0017.0051.0009.0101-.0008.0101-.0016.005.0008.0051.0008.0102 0 8.8576-4.913 17.032-10.5386 21.9224-14.072 5.0047 3.6307 13.3832 9.4267 21.9753 14.1121.0025-.0017.0025-.0051.0017-.0091.0034-.0034.0017-.0086.0017-.0107.0025-.005.0017-.0091.0017-.0106.0025-.0051.0034-.0061.0034-.0096 0-2.3697-.0008-2.3695-.0008-2.3695s-4.9216-17.5874-6.6094-22.8289c4.9997-3.6378 13.099-9.8129 20.2097-16.5361-.0008-.0026-.0026-.0051-.0102-.0061-.0025-.0051-.005-.0051-.01-.0061-.0034-.0034-.0103-.0051-.0103-.0061-.0034-.0034-.0032-.0061-.0049-.0076 0-2.3697.0354-2.3438-.0005-2.3455 0 0-20.41.8609-26.0059.8462-1.915-5.8793-5.2866-15.4907-9.483-24.3301z" fill="#040404" fill-opacity=".995238" opacity=".2"/>
  <path d="m64.0257 26.3382c-.0034 0-.0052.0008-.0102.0061-.0051.0008-.0051.0051-.0051.0076-.0051.0025-.005.0066-.0101.0091-.0051.0026-.0051.0026-.0102.0061-4.2778 9.1806-7.5833 18.5368-9.4628 24.2699-6.1828.0051-16.3662.2395-26.0721 1.4993-.0008.0034-.0015.0051.0019.0076-.0009.0061.0032.0086.005.0112.0008.0061.0034.0076.0051.0091.0008.0061.0016.005.0034.0076 7.4092 6.9055 15.2868 12.9405 20.1586 16.4997-1.9064 5.8815-4.8308 15.6399-6.632 25.2603.0025.0017.0034.0026.0102 0 .0051.0026.0101-.0008.0101-.0017.0051.0009.0102-.0008.0102-.0017.0051.0009.005.0009.0101 0 8.8576-4.9129 17.032-10.5385 21.9224-14.072 5.0047 3.6308 13.3833 9.4267 21.9754 14.1122.0025-.0017.0024-.0051.0016-.0092.0034-.0033.0017-.0086.0017-.0106.0025-.0051.0017-.0091.0017-.0106.0025-.0051.0034-.0061.0034-.0097-1.9354-9.9423-4.7608-19.4553-6.61-25.1983 4.9996-3.6378 13.0987-9.8129 20.2095-16.5362-.0009-.0025-.0024-.0051-.0101-.0061-.0025-.0051-.0051-.005-.0102-.0061-.0034-.0033-.01-.005-.01-.006-.0034-.0034-.0035-.0061-.0051-.0077-10.0535-1.2316-19.9729-1.4833-26.0063-1.4993-1.915-5.8792-5.2866-15.4907-9.4829-24.33z" fill="#f6f5f4"/>
</svg>

<svg width="128" height="128" viewBox="0 0 128 128" fill="none" xmlns="http://www.w3.org/2000/svg">
<path d="M108 68H20C15.5817 68 12 71.5817 12 76V108C12 112.418 15.5817 116 20 116H108C112.418 116 116 112.418 116 108V76C116 71.5817 112.418 68 108 68Z" fill="url(#paint0_linear)"/>
<path d="M20 10C15.568 10 12 13.568 12 18V60V102C12 106.432 15.568 110 20 110H64H108C112.432 110 116 106.432 116 102V60V18C116 13.568 112.432 10 108 10H20Z" fill="url(#paint1_linear)"/>
<path opacity="0.2" d="M64.0256 28.7078C64.0222 28.7078 64.0205 28.7086 64.0154 28.7139C64.0103 28.7148 64.0103 28.719 64.0103 28.7215C64.0052 28.7241 64.0053 28.7281 64.0002 28.7307C63.9951 28.7332 63.9951 28.7332 63.99 28.7368C59.7122 37.9173 56.4067 47.2736 54.5272 53.0066C48.8013 53.0113 28.4776 52.1402 28.4776 52.1402C28.4776 52.1402 28.4725 54.5414 28.4573 54.5059C28.4565 54.5093 28.4556 54.511 28.459 54.5136C28.4582 54.5196 28.4624 54.5222 28.4641 54.5247C28.465 54.5308 28.4676 54.5323 28.4692 54.5338C28.4701 54.5399 28.4709 54.5389 28.4726 54.5414C35.8819 61.4469 43.7593 67.4819 48.6311 71.0411C46.895 76.3974 42.0295 93.8988 42.0295 93.8988C42.0447 93.8042 42.0296 93.8987 41.9991 96.3014C42.0017 96.3031 42.0024 96.304 42.0092 96.3014C42.0143 96.304 42.0194 96.3006 42.0194 96.2997C42.0245 96.3006 42.0295 96.2989 42.0295 96.2981C42.0345 96.2989 42.0346 96.2989 42.0397 96.2981C50.8973 91.3851 59.0717 85.7595 63.9621 82.2261C68.9668 85.8568 77.3453 91.6528 85.9374 96.3382C85.9399 96.3365 85.9399 96.3331 85.9391 96.3291C85.9425 96.3257 85.9408 96.3205 85.9408 96.3184C85.9433 96.3134 85.9425 96.3093 85.9425 96.3078C85.945 96.3027 85.9459 96.3017 85.9459 96.2982C85.9459 93.9285 85.9451 93.9287 85.9451 93.9287C85.9451 93.9287 81.0235 76.3413 79.3357 71.0998C84.3354 67.462 92.4347 61.2869 99.5454 54.5637C99.5446 54.5611 99.5428 54.5586 99.5352 54.5576C99.5327 54.5525 99.5302 54.5525 99.5252 54.5515C99.5218 54.5481 99.5149 54.5464 99.5149 54.5454C99.5115 54.542 99.5117 54.5393 99.51 54.5378C99.51 52.1681 99.5454 52.194 99.5095 52.1923C99.5095 52.1923 79.0995 53.0532 73.5036 53.0385C71.5886 47.1592 68.217 37.5478 64.0206 28.7084L64.0256 28.7078Z" fill="#040404" fill-opacity="0.995238"/>
<path d="M64.0257 26.3382C64.0223 26.3382 64.0205 26.339 64.0155 26.3443C64.0104 26.3451 64.0104 26.3494 64.0104 26.3519C64.0053 26.3544 64.0054 26.3585 64.0003 26.361C63.9952 26.3636 63.9952 26.3636 63.9901 26.3671C59.7123 35.5477 56.4068 44.9039 54.5273 50.637C48.3445 50.6421 38.1611 50.8765 28.4552 52.1363C28.4544 52.1397 28.4537 52.1414 28.4571 52.1439C28.4562 52.15 28.4603 52.1525 28.4621 52.1551C28.4629 52.1612 28.4655 52.1627 28.4672 52.1642C28.468 52.1703 28.4688 52.1692 28.4706 52.1718C35.8798 59.0773 43.7574 65.1123 48.6292 68.6715C46.7228 74.553 43.7984 84.3114 41.9972 93.9318C41.9997 93.9335 42.0006 93.9344 42.0074 93.9318C42.0125 93.9344 42.0175 93.931 42.0175 93.9301C42.0226 93.931 42.0277 93.9293 42.0277 93.9284C42.0328 93.9293 42.0327 93.9293 42.0378 93.9284C50.8954 89.0155 59.0698 83.3899 63.9602 79.8564C68.9649 83.4872 77.3435 89.2831 85.9356 93.9686C85.9381 93.9669 85.938 93.9635 85.9372 93.9594C85.9406 93.9561 85.9389 93.9508 85.9389 93.9488C85.9414 93.9437 85.9406 93.9397 85.9406 93.9382C85.9431 93.9331 85.944 93.9321 85.944 93.9285C84.0086 83.9862 81.1832 74.4732 79.334 68.7302C84.3336 65.0924 92.4327 58.9173 99.5435 52.194C99.5426 52.1915 99.5411 52.1889 99.5334 52.1879C99.5309 52.1828 99.5283 52.1829 99.5232 52.1818C99.5198 52.1785 99.5132 52.1768 99.5132 52.1758C99.5098 52.1724 99.5097 52.1697 99.5081 52.1681C89.4546 50.9365 79.5352 50.6848 73.5018 50.6688C71.5868 44.7896 68.2152 35.1781 64.0189 26.3388L64.0257 26.3382Z" fill="url(#paint2_linear)"/>
<defs>
<linearGradient id="paint0_linear" x1="116" y1="117.999" x2="12" y2="117.999" gradientUnits="userSpaceOnUse">
<stop stop-color="#D5D3CF"/>
<stop offset="0.038" stop-color="#E3E2DF"/>
<stop offset="0.077" stop-color="#C0BFBC"/>
<stop offset="0.923" stop-color="#C0BFBC"/>
<stop offset="0.962" stop-color="#E3E2DF"/>
<stop offset="1" stop-color="#D5D3CF"/>
</linearGradient>
<linearGradient id="paint1_linear" x1="12" y1="60" x2="116" y2="60" gradientUnits="userSpaceOnUse">
<stop stop-color="#E5A50A"/>
</linearGradient>
<linearGradient id="paint2_linear" x1="28.4546" y1="60.1534" x2="99.5435" y2="60.1534" gradientUnits="userSpaceOnUse">
<stop stop-color="#F6F5F4"/>
</linearGradient>
</defs>
</svg>
